!!!SOCIAL_FUNCTION:	songs received from animals
!!!PDT:	1918

Specific Region: Dakotas, Minnesota, Montana, Nebraska
!!!REG: Dakotas and Montana
!!!LING_GROUP: Siouan
!!!LANG: Tone
!!!OTL@ENG: Song of the Young Wolves
!!!ONM: No. 48
**kern
*Imale
*clefF4
*k[b-e-]
*M2/4
*>[A,A]
*>norep[A]
*>A
=!|:
*MM56
16d
16d
=1
8.d
16c
8d
16B-
16B-
=2
4G
8G
16d
16d
=3
8.d
16c
8d
16B-
16B-
=4
(8F
16A
16G)
8.F
16G
=5||
*M3/4
12G
12G
12G
4G
8F
16G
16G
=6
4.G
16F
16F
(12F
12D)
12D
=7||
*M2/4
4D
8.D
16D
=8
(16D
16C)
16C
16C
(16C
16BB-)
16BB-
16BB-
=9
4BB-
8.BB-
16B-
=10
[4G
12G]
12B-
12B-
=11
(12B-
12G)
12G
(12G
12F)
12F
=12
(12F
12D)
12D
(12D
12C)
12C
=13||
*M3/4
8.BB-
16BB-
2BB-
=14
4BB-
(12BB-
12GG)
12GG
12GG
12FF
12FF
=15||
*M2/4
4FF
8FF
==:|!
*-
!!!CNT: Native American -- Sioux
!!!MRD: 1911/07//-1914///
!!!OCL: Frances Densmore
!!!YOR1: Teton Sioux Music, Bulletin 61,
!!!YOR2: Bureau of American Ethnology, Smithsonian Institution
!!!PPR: Government Printing Office
!!!PPP: Washington, D.C.
!!!PDT: 1918///
!!!ENC: Craig Stuart Sapp
!!!END: 2002/03/25/
!!!EEV: 2002/03/31/
!!!AGN: Song of Personal Dreams/Song Received from Animals
!!!MPN@@SIO: Waking'yan-wata'kpe
!!!MPN@ENG: Charging Thunder
!!!TXO: Teton Sioux
!!!MLC: Standing Rock Reservation, South Dakota, United States of America
!!!ARL: 45.9/-100.7#
!!!catalog: Catalogue No. 570
!!!PPG: 182
!!!EFL: 48/245
!!!VTS: 485954083
